public/images/logos/cabaia.svg

<svg xmlns="http://www.w3.org/2000/svg" width="567" height="567" fill="none"><path fill="#fff" d="M283.46 530.87c136.668 0 247.46-110.792 247.46-247.46S420.128 35.95 283.46 35.95 36 146.742 36 283.41s110.792 247.46 247.46 247.46Z"/><path fill="#0000C8" d="M283.46 0C126.91 0 0 126.89 0 283.41c0 156.52 126.91 283.41 283.46 283.41 156.55 0 283.46-126.89 283.46-283.41C566.92 126.89 440.02 0 283.46 0Zm0 527.11c-134.41 0-243.75-109.33-243.75-243.71S149.06 39.7 283.46 39.7s243.75 109.33 243.75 243.7-109.35 243.71-243.75 243.71Z"/><path fill="#0000C8" d="M437.28 341.65h-6l-7.54 11.01-2.46 14.39h25.86l-2.39-14.39-7.47-11.01ZM202.08 341.65h-6l-7.54 11.01-2.46 14.39h25.86l-2.39-14.39-7.47-11.01ZM341.94 341.65h-6.01l-7.54 11.01-2.46 14.39h25.86l-2.39-14.39-7.46-11.01ZM253.87 365.9v15.01h27.79l3.38-4.93-5.08-10.08h-26.09ZM281.58 346.66l-3.47-5.01h-24.24v13.86h23.25l4.46-8.85Z"/><path fill="#0000C8" d="M283.46 53.94c-126.56 0-229.51 102.94-229.51 229.47s102.96 229.47 229.51 229.47 229.52-102.94 229.52-229.47S410.02 53.94 283.46 53.94ZM150.48 392.12h-33l-14.73-17.89v-25.91l14.73-17.88h32.23l10.33 17.88-10.33 5.94-7.4-12.65H123.8l-9.1 10.95v17.35l9.1 11.03h19.36l7.32-12.64 10.33 5.94-10.33 17.89v-.01Zm65.68 0-2.31-13.88h-29.69l-2.39 13.88h-12.1l7.4-43.95 12.03-17.73h19.82l12.03 17.73 7.4 43.95h-12.19Zm72.67 0h-46.5v-61.68h43.1l10.41 15.27-6.09 12.1 9.56 19.12-10.48 15.19Zm67.18 0-2.31-13.88h-29.69l-2.39 13.88h-12.1l7.4-43.95 12.03-17.73h19.82l12.03 17.73 7.4 43.95h-12.19Zm-.21-171.66-26.53-16.49 11.79 71.52-.54.5c-4.4 4.11-7.9 6.99-14.77 11.38l-1.74 1.11-17.36-99.18-23.07-21.84-23.07 21.84-17.36 99.18-1.74-1.11c-6.87-4.38-10.36-7.27-14.77-11.38l-.54-.5 11.79-71.52-26.54 16.49-8.67-10.91 65.94-54.14-12.13-15.39 10.45-10.3 16.65 13.04 16.64-13.04 10.45 10.3-12.14 15.39 65.94 54.14-8.67 10.91h-.01Zm37.03 171.66h-11.95v-61.68h11.95v61.68Zm58.7 0-2.31-13.88h-29.69l-2.39 13.88h-12.1l7.4-43.95 12.03-17.73h19.82l12.03 17.73 7.4 43.95h-12.19Z"/></svg>

<svg width="567" height="567" viewBox="0 0 567 567" fill="none" xmlns="http://www.w3.org/2000/svg">
<path d="M283.46 530.87C420.128 530.87 530.92 420.078 530.92 283.41C530.92 146.742 420.128 35.95 283.46 35.95C146.792 35.95 36 146.742 36 283.41C36 420.078 146.792 530.87 283.46 530.87Z" fill="white"/>
<path d="M283.46 0C126.91 0 0 126.89 0 283.41C0 439.93 126.91 566.82 283.46 566.82C440.01 566.82 566.92 439.93 566.92 283.41C566.92 126.89 440.02 0 283.46 0ZM283.46 527.11C149.05 527.11 39.71 417.78 39.71 283.4C39.71 149.02 149.06 39.7 283.46 39.7C417.86 39.7 527.21 149.03 527.21 283.4C527.21 417.77 417.86 527.11 283.46 527.11Z" fill="#0000C8"/>
<path d="M437.28 341.65H431.28L423.74 352.66L421.28 367.05H447.14L444.75 352.66L437.28 341.65Z" fill="#0000C8"/>
<path d="M202.08 341.65H196.08L188.54 352.66L186.08 367.05H211.94L209.55 352.66L202.08 341.65Z" fill="#0000C8"/>
<path d="M341.94 341.65H335.93L328.39 352.66L325.93 367.05H351.79L349.4 352.66L341.94 341.65Z" fill="#0000C8"/>
<path d="M253.87 365.9V380.91H281.66L285.04 375.98L279.96 365.9H253.87Z" fill="#0000C8"/>
<path d="M281.58 346.66L278.11 341.65H253.87V355.51H277.12L281.58 346.66Z" fill="#0000C8"/>
<path d="M283.46 53.94C156.9 53.94 53.95 156.88 53.95 283.41C53.95 409.94 156.91 512.88 283.46 512.88C410.01 512.88 512.98 409.94 512.98 283.41C512.98 156.88 410.02 53.94 283.46 53.94ZM150.48 392.12H117.48L102.75 374.23V348.32L117.48 330.44H149.71L160.04 348.32L149.71 354.26L142.31 341.61H123.8L114.7 352.56V369.91L123.8 380.94H143.16L150.48 368.3L160.81 374.24L150.48 392.13V392.12ZM216.16 392.12L213.85 378.24H184.16L181.77 392.12H169.67L177.07 348.17L189.1 330.44H208.92L220.95 348.17L228.35 392.12H216.16ZM288.83 392.12H242.33V330.44H285.43L295.84 345.71L289.75 357.81L299.31 376.93L288.83 392.12ZM356.01 392.12L353.7 378.24H324.01L321.62 392.12H309.52L316.92 348.17L328.95 330.44H348.77L360.8 348.17L368.2 392.12H356.01ZM355.8 220.46L329.27 203.97L341.06 275.49L340.52 275.99C336.12 280.1 332.62 282.98 325.75 287.37L324.01 288.48L306.65 189.3L283.58 167.46L260.51 189.3L243.15 288.48L241.41 287.37C234.54 282.99 231.05 280.1 226.64 275.99L226.1 275.49L237.89 203.97L211.35 220.46L202.68 209.55L268.62 155.41L256.49 140.02L266.94 129.72L283.59 142.76L300.23 129.72L310.68 140.02L298.54 155.41L364.48 209.55L355.81 220.46H355.8ZM392.83 392.12H380.88V330.44H392.83V392.12ZM451.53 392.12L449.22 378.24H419.53L417.14 392.12H405.04L412.44 348.17L424.47 330.44H444.29L456.32 348.17L463.72 392.12H451.53Z" fill="#0000C8"/>
</svg>
